X:1
T:[ID 1-37]
T:[ID 1-37]
T:Bezeichnung standardisiert: Menuett Men\"uet | nicht
T:Urheber unbekannt Datum in der hier transkribierten schriftlichen Quelle: vermutlich vor 1767
C:Urheber unbekannt
C:Datum in der hier transkribierten schriftlichen Quelle: vermutlich vor 1767
L:1/8
M:3/4
K:D
V:1 treble 
V:1
 GBdgbc' | d'2 c'2 b2 | abc'bag | f2 ef d2 | Bg Tg4 | ac Tc4 | Bg Tg4 | ac Tc4 | AcBAGF | G6 :: %10
 B2 A2 G2 | FAd^c d2 | e2 gfed | ^c2 Bc A2 | fd d'2 d'2 | c'b a4 | fd d'2 d'2 | c'b a4 | gfgbec | %19
 d6!D.C.! || %20

